!!!!SEGMENT: pl-wn--sd-xvi-o-256_anonim--kancjonal-zamoyskich-piesn-o-zimie-badz-pamiatka-wieczna-kazdemu.krn
!!!cenid: 15xx:814
!!!COM: Anonim
!!!COM-rismID: pe30004985
!!!CDT:
!!!CNT:
!!!OTL: Kancjonał Zamoyskich
!!!PDT: 1561
!!!AGN:
!!!YEC: Copyright 2022 Narodowy Instytut Fryderyka Chopina (https://polishscores.org)
!!!YEM: License CC-BY-4.0 (https://creativecommons.org/licenses/by/4.0)
!!!SMS-siglum: PL-Wn
!!!SMS-shelfmark: SD XVI.O.256
!!!SMS-shelfwork: W
!!!SMS-variant:
!!!SMS-altvar:
!!!NIFC-rismSourceID: 990072141
!!!NIFC-rismChildID: 990072141
!!!NIFC-islandoraID: none
!!!URL-pdf-islandora:
!!!URL-scan: https://polona2.pl/item/piesn-o-zimie-ktora-byla-roku-od-narodzenia-pana-krystusowego-m-d-lvij-nowo-vczniona,MTE3MjExMQ/3 @EN{Scan on Polona} @PL{Skany w portalu Polona}
!!!IIIF: https://polona2.pl/iiif/item/MTE3MjExMQ/manifest.json
!!!ONB-nifc: UWAGA: proszę zapisywać tylko teksty występujące bezpośrednio pod nutami
!!!AIN: 1 alto 1 bass 1 soprn 1 tenor
!!!key: G:mix
**kern	**text	**mod-text	**text	**mod-text	**kern	**text	**mod-text	**text	**mod-text	**kern	**text	**mod-text	**text	**mod-text	**kern	**text	**mod-text	**text	**mod-text
*part4	*	*	*	*	*part3	*	*	*	*	*part2	*	*	*	*	*part1	*	*	*	*
*staff4	*	*	*	*	*staff3	*	*	*	*	*staff2	*	*	*	*	*staff1	*	*	*	*
*>[A,A,B,B]	*	*>[A,A,B,B]	*	*>[A,A,B,B]	*>[A,A,B,B]	*>[A,A,B,B]	*>[A,A,B,B]	*>[A,A,B,B]	*>[A,A,B,B]	*>[A,A,B,B]	*	*>[A,A,B,B]	*	*>[A,A,B,B]	*>[A,A,B,B]	*>[A,A,B,B]	*>[A,A,B,B]	*>[A,A,B,B]	*>[A,A,B,B]
*>A	*	*>A	*	*>A	*>A	*>A	*>A	*>A	*>A	*>A	*	*>A	*	*>A	*>A	*>A	*>A	*>A	*>A
*I"Baſſus.	*	*	*	*	*I"Tenor.	*	*	*	*	*I"Altus.	*	*	*	*	*I"Diſcantus.	*	*	*	*
*mI"Basso	*	*	*	*	*mI"Tenore	*	*	*	*	*mI"Alto	*	*	*	*	*mI"Soprano	*	*	*	*
*I'B	*	*	*	*	*I'T	*	*	*	*	*I'A	*	*	*	*	*I'S	*	*	*	*
*Ibass	*	*	*	*	*Itenor	*	*	*	*	*Ialto	*	*	*	*	*Isoprn	*	*	*	*
*ICvox	*	*	*	*	*ICvox	*	*	*	*	*ICvox	*	*	*	*	*ICvox	*	*	*	*
*clefF4	*	*	*	*	*clefC4	*	*	*	*	*clefC3	*	*	*	*	*clefC1	*	*	*	*
*	*	*	*	*	*mclefGv2	*	*	*	*	*mclefG2	*	*	*	*	*mclefG2	*	*	*	*
*k[]	*	*	*	*	*k[]	*	*	*	*	*k[]	*	*	*	*	*k[]	*	*	*	*
*G:mix	*	*	*	*	*G:mix	*	*	*	*	*G:mix	*	*	*	*	*G:mix	*	*	*	*
*M2/1	*	*	*	*	*M2/1	*	*	*	*	*M2/1	*	*	*	*	*M2/1	*	*	*	*
*met(C|)	*	*	*	*	*met(C|)	*	*	*	*	*met(C|)	*	*	*	*	*met(C|)	*	*	*	*
*mmet(c|)	*	*	*	*	*mmet(c|)	*	*	*	*	*mmet(c|)	*	*	*	*	*mmet(c|)	*	*	*	*
=1-	=1-	=1-	=1-	=1-	=1-	=1-	=1-	=1-	=1-	=1-	=1-	=1-	=1-	=1-	=1-	=1-	=1-	=1-	=1-
!!LO:TX:t=P:problem:metrum przed kluczem
*xywh-#5:2736,1768,2040,601	*	*	*	*	*xywh-#5:606,1909,2096,758	*	*	*	*	*xywh-#5:2782,386,1995,629	*	*	*	*	*xywh-#5:633,374,2034,899	*	*	*	*
2r	.	.	.	.	2r	.	.	.	.	2r	.	.	.	.	2r	.	.	.	.
2C/	.	Bądź	.	ja-	2G/	Bądź	Bądź	Já-	ja-	2e\	.	Bądź	.	ja-	2cc\	Bądź	Bądź	Já-	ja-
2GG/	.	pa-	.	-ko	2d\	pá-	pa-	-ko	-ko	2g\	.	pa-	.	-ko	2b\	pa-	pa-	-ko	-ko
2G\	.	-mią-	.	Pan	2d\	-miąt-	-mią-	Pan	Pan	2g\	.	-mią-	.	Pan	2b\	-miąt-	-mią-	pan	Pan
=2-	=2-	=2-	=2-	=2-	=2-	=2-	=2-	=2-	=2-	=2-	=2-	=2-	=2-	=2-	=2-	=2-	=2-	=2-	=2-
2A\	.	-tka	.	Bóg	2e\	-ká	-tka	Bog	Bóg	2a\	.	-tka	.	Bóg	2cc\	-ká	-tka	Bog	Bóg
!LO:SIC:v:o=2B\	!	!	!	!	!	!	!	!	!	!	!	!	!	!	!	!	!	!	!
2c\	.	wie-	.	gniew	2c\	wiecż-	wie-	gniew	gniew	2g\	.	wie-	.	gniew	2ee\	wiecż-	wie-	gniew	gniew
2.G\	.	-czna	.	swój	2d\	-na	-czna	ſwoy	swój	2.g\	.	-czna	.	swój	2dd\	-na	-czna	ſwoy	swój
.	.	.	.	.	2c\	káż-	każ-	o-	o-	.	.	.	.	.	2a/	káż-	każ-	o-	o-
4A\	.	każ-	.	o-	.	.	.	.	.	4f\	.	każ-	.	o-	.	.	.	.	.
=3-	=3-	=3-	=3-	=3-	=3-	=3-	=3-	=3-	=3-	=3-	=3-	=3-	=3-	=3-	=3-	=3-	=3-	=3-	=3-
1G	.	-de-	.	-bró-	1B	-de-	-de-	-bro-	-bró-	1d	.	-de-	.	-bró-	1g	-de-	-de-	-bro-	-bró-
*custos:D	*	*	*	*	*	*	*	*	*	*	*	*	*	*	*	*	*	*	*
!LO:LB:g=original	!	!	!	!	!	!	!	!	!	!	!	!	!	!	!	!	!	!	!
*xywh-#5:2792,2341,1871,415	*	*	*	*	*	*	*	*	*	*	*	*	*	*	*	*	*	*	*
1D	.	-mu	.	-cił	1A	-mu,	-mu	-ćił/	-cił	1f	.	-mu	.	-cił	1a	-mu/	-mu	-ćił/	-cił
=4-	=4-	=4-	=4-	=4-	=4-	=4-	=4-	=4-	=4-	=4-	=4-	=4-	=4-	=4-	=4-	=4-	=4-	=4-	=4-
!	!	!	!	!	!	!	!	!	!	!LO:MO:mod=2.e	!	!	!	!	!	!	!	!	!
2C/	.	nam	.	na	2c\	etc.	nam	.	na	[y2e\	.	nam	.	na	2cc\	etc.	nam	etc	na
!	!	!	!	!	!	!	!	!	!	!LO:LB:g=original	!	!	!	!	!	!	!	!	!
*	*	*	*	*	*	*	*	*	*	*xywh-#5:2760,948,2017,421	*	*	*	*	*	*	*	*	*
!	!	!	!	!	!	!	!	!	!	!LO:MO:mod=!null:null	!	!	!	!	!	!	!	!	!
!	!	!	!	!	!	!	!	!	!	!LO:N:xstem:cue	!	!	!	!	!	!	!	!	!
!	!	!	!	!	!	!	!	!	!	!LO:MO:mod=.	!	!	!	!	!	!	!	!	!
2G\	.	.	.	czło-	2B/	.	.	.	czło-	4e\]	.	.	.	czło-	2dd\	.	.	.	czło-
*	*	*	*	*	*	*	*	*	*	*custos:d	*	*	*	*	*	*	*	*	*
.	.	.	.	.	.	.	.	.	.	4d/	.	.	.	.	.	.	.	.	.
2F\	.	i	.	-wie-	2A/	.	i	.	-wie-	2f\	.	i	.	-wie-	2dd\	.	i	.	-wie-
2E/	.	po-	.	-ka	2G/	.	po-	.	-ka	2c/	.	po-	.	-ka	2cc\	.	po-	.	-ka
=5-	=5-	=5-	=5-	=5-	=5-	=5-	=5-	=5-	=5-	=5-	=5-	=5-	=5-	=5-	=5-	=5-	=5-	=5-	=5-
1D	.	-tom-	.	by	1d	.	-tom-	.	by	1f	.	-tom-	.	by	2.a/	.	-tom-	.	by
.	.	.	.	.	.	.	.	.	.	.	.	.	.	.	4b\	.	.	.	.
2F\	.	-stwu	.	grzech	2c\	.	-stwu	.	grzech	2f\	.	-stwu	.	grzech	2cc\	.	-stwu	.	grzech
*	*	*	*	*	*	*	*	*	*	*	*	*	*	*	*custos:g	*	*	*	*
!	!	!	!	!	!	!	!	!	!	!LO:SIC:o=2d/	!	!	!	!	!LO:LB:g=original	!	!	!	!
*	*	*	*	*	*	*	*	*	*	*	*	*	*	*	*xywh-#5:633,1251,2034,663	*	*	*	*
2G\	.	na-	.	o-	2B/	.	na-	.	o-	[2d	.	na-	.	o-	1g\	.	na-	.	o-
=6-	=6-	=6-	=6-	=6-	=6-	=6-	=6-	=6-	=6-	=6-	=6-	=6-	=6-	=6-	=6-	=6-	=6-	=6-	=6-
!	!	!	!	!	!	!	!	!	!	!LO:SIC:o=2d/	!	!	!	!	!	!	!	!	!
2D/	.	.	.	.	1A	.	-sze-	.	-ba-	2d]	.	.	.	.	.	.	.	.	.
!	!	!	!	!	!	!	!	!	!	!	!	!	!	!	!LO:SIC:o=2f/	!	!	!	!
2D/	.	-sze-	.	-ba-	.	.	.	.	.	2d/	.	-sze-	.	-ba-	2f#i	.	-sze-	.	-ba-
1GG	.	-mu	.	-czył.	1G	.	-mu	.	-czył.	1B	.	-mu	.	-czył.	1g	.	-mu	.	-czył.
=7:|!|:	=7:|!|:	=7:|!|:	=7:|!|:	=7:|!|:	=7:|!|:	=7:|!|:	=7:|!|:	=7:|!|:	=7:|!|:	=7:|!|:	=7:|!|:	=7:|!|:	=7:|!|:	=7:|!|:	=7:|!|:	=7:|!|:	=7:|!|:	=7:|!|:	=7:|!|:
*>B	*	*>B	*	*>B	*>B	*>B	*>B	*>B	*>B	*>B	*	*>B	*	*>B	*>B	*>B	*>B	*>B	*>B
!LO:LB:g=original	!	!	!	!	!LO:LB:g=original	!	!	!	!	!	!	!	!	!	!	!	!	!	!
*xywh-#5:2792,2729,1899,590	*	*	*	*	*xywh-#5:673,2645,1939,719	*	*	*	*	*	*	*	*	*	*	*	*	*	*
2r	.	.	.	.	2r	.	.	.	.	2r	.	.	.	.	2r	.	.	.	.
2G\	.	Nie	.	a-	2B/	Nie	Nie	A-	a-	2d/	.	Nie	.	a-	2g/	Nie	Nie	A-	a-
2F\	.	prze	.	-by	2A/	prze	prze	-by	-by	2d/	.	prze	.	-by	2a/	prze	prze	-by	-by
*	*	*	*	*	*	*	*	*	*	*custos:e	*	*	*	*	*	*	*	*	*
!	!	!	!	!	!	!	!	!	!	!LO:LB:g=original	!	!	!	!	!	!	!	!	!
*	*	*	*	*	*	*	*	*	*	*xywh-#5:2749,1341,2051,460	*	*	*	*	*	*	*	*	*
2E/	.	i-	.	wſzel-	2B/	in-	i-	wſzel-	wſzel-	2e\	.	i-	.	wſzel-	2g/	i-	i-	wſzel-	wſzel-
=8-	=8-	=8-	=8-	=8-	=8-	=8-	=8-	=8-	=8-	=8-	=8-	=8-	=8-	=8-	=8-	=8-	=8-	=8-	=8-
2C/	.	-ny	.	-ki	2.c\	-ny	-ny	-ki	-ki	2g\	.	-ny	.	-ki	2g/	-ny	-ny	-ki	-ki
2G\	.	spo-	.	był	.	.	.	.	.	2g\	.	spo-	.	był	2g/	ſpo-	spo-	był	był
.	.	.	.	.	4B/	ſpo-	.	był	.	.	.	.	.	.	.	.	.	.	.
2F\	.	.	.	.	2A/	-ſob	spo-	te-	był	2c/	.	.	.	.	2a/	-ſob	.	te-	.
2E/	.	-sób	.	te-	2G/	ie-	-sób	-go	te-	2c/	.	-sób	.	te-	2e/	ie-	-sób	-go	te-
=9-	=9-	=9-	=9-	=9-	=9-	=9-	=9-	=9-	=9-	=9-	=9-	=9-	=9-	=9-	=9-	=9-	=9-	=9-	=9-
2G\	.	je-	.	-go	2B/	-dno	je-	pe-	-go	2d/	.	je-	.	-go	2d/	-no	je-	pe-	-go
2C/	.	.	.	.	2c\	prze	-dno	-wien.	.	2e\	.	.	.	.	1g	prze	-dno	-wień.	.
2D/	.	-dno	.	.	1A	ten/	prze	.	pe-	2d/	.	-dno	.	.	.	.	.	.	.
!	!	!	!	!	!	!	!	!	!	!	!	!	!	!	!LO:SIC:o=2f/	!	!	!	!
2D/	.	prze	.	pe-	.	.	.	.	.	2d/	.	prze	.	pe-	2f#i	ten/	prze	.	pe-
=10-	=10-	=10-	=10-	=10-	=10-	=10-	=10-	=10-	=10-	=10-	=10-	=10-	=10-	=10-	=10-	=10-	=10-	=10-	=10-
0GGl/	.	ten	.	-wien.	0Gl/	.	ten	.	-wien.	0dl/	.	ten	.	-wien.	0gl/	.	ten	.	wien.
=:|!	=:|!	=:|!	=:|!	=:|!	=:|!	=:|!	=:|!	=:|!	=:|!	=:|!	=:|!	=:|!	=:|!	=:|!	=:|!	=:|!	=:|!	=:|!	=:|!
*-	*-	*-	*-	*-	*-	*-	*-	*-	*-	*-	*-	*-	*-	*-	*-	*-	*-	*-	*-
!!!system-decoration: [(*)]
!!LO:MO:ori
!!!RDF**kern: > = above
!!!RDF**kern: < = below
!!!RDF**kern: l = terminal long
!!LO:MO:mod
!! !!!RDF**kern: i = editorial accidental
!!LO:MO:end
!!!filter-modern: shed -e "s/TX(.*):t=P:/tx$1:t=P:/LG" | shed -e "s/^custos:/Xcustos:/I" | sic -sq | modori -m | autostem -r | tie -s | humtr -p | shed -e "s/-//B"
!!!ENC: Mateusz Solarz
!!!END: 2022-04-26
!!!EED: Katarzyna Serwa
!!!EEV: 2022-05-08
!!!ENC-modern: Andrzej Kubiczek
!!!END-modern: 2022-07-25
!!!ENC-iiif: Emilia Ziętek
!!!END-iiif: 2022-09-02
